assets/icons/ui/call.svg

<svg width="20" height="20" viewBox="0 0 20 20" fill="none" xmlns="http://www.w3.org/2000/svg">
<mask id="mask0_71_3911" style="mask-type:alpha" maskUnits="userSpaceOnUse" x="0" y="0" width="20" height="20">
<rect width="20" height="20" fill="#D9D9D9"/>
</mask>
<g mask="url(#mask0_71_3911)">
<path d="M16.2002 17.0833C14.6298 17.0833 13.0521 16.7182 11.4671 15.9879C9.88221 15.2576 8.42603 14.2275 7.09853 12.8975C5.77117 11.5673 4.74235 10.1111 4.01207 8.52871C3.2818 6.94649 2.91666 5.37017 2.91666 3.79975C2.91666 3.54739 2.99999 3.33711 3.16666 3.16892C3.33332 3.00072 3.54166 2.91663 3.79166 2.91663H6.50957C6.71999 2.91663 6.90562 2.98531 7.06645 3.12267C7.22728 3.25989 7.32957 3.42947 7.37332 3.63142L7.85103 6.08329C7.88409 6.31079 7.87714 6.50628 7.8302 6.66975C7.78312 6.83322 7.69867 6.97051 7.57687 7.08163L5.65228 8.95517C5.962 9.52239 6.31589 10.059 6.71395 10.565C7.11187 11.0708 7.5427 11.5539 8.00645 12.0143C8.46367 12.4717 8.94978 12.8964 9.46478 13.2885C9.97978 13.6806 10.5359 14.0454 11.1331 14.3831L13.0031 12.4968C13.1335 12.3611 13.2914 12.266 13.4769 12.2114C13.6621 12.157 13.8547 12.1436 14.0546 12.1714L16.3685 12.6427C16.5789 12.6982 16.7507 12.8056 16.8837 12.9648C17.0168 13.1239 17.0833 13.3045 17.0833 13.5064V16.2083C17.0833 16.4583 16.9992 16.6666 16.831 16.8333C16.6628 17 16.4526 17.0833 16.2002 17.0833ZM5.06082 7.77246L6.54812 6.34934C6.57478 6.32795 6.59214 6.29857 6.6002 6.26121C6.60825 6.22385 6.60693 6.18913 6.59624 6.15704L6.23395 4.29475C6.22325 4.25211 6.20457 4.2201 6.17791 4.19871C6.15124 4.17732 6.11652 4.16663 6.07374 4.16663H4.29166C4.25957 4.16663 4.23284 4.17732 4.21145 4.19871C4.1902 4.2201 4.17957 4.24683 4.17957 4.27892C4.22221 4.84836 4.31541 5.42683 4.45916 6.01433C4.60277 6.60197 4.80332 7.18802 5.06082 7.77246ZM12.3108 14.9743C12.8632 15.2318 13.4393 15.4287 14.0392 15.565C14.6392 15.7011 15.1998 15.782 15.721 15.8077C15.7531 15.8077 15.7799 15.797 15.8012 15.7756C15.8226 15.7542 15.8333 15.7275 15.8333 15.6954V13.9423C15.8333 13.8995 15.8226 13.8648 15.8012 13.8381C15.7799 13.8114 15.7478 13.7927 15.7052 13.782L13.9552 13.4262C13.9231 13.4155 13.8951 13.4142 13.871 13.4223C13.847 13.4303 13.8216 13.4477 13.7948 13.4743L12.3108 14.9743Z" fill="#3A2010"/>
</g>
</svg>

<svg xmlns="http://www.w3.org/2000/svg" width="20" height="20" fill="none" viewBox="0 0 20 20"><mask id="a" width="20" height="20" x="0" y="0" maskUnits="userSpaceOnUse" style="mask-type:alpha"><path fill="#d9d9d9" d="M0 0h20v20H0z"/></mask><g mask="url(#a)"><path fill="#3a2010" d="M16.2 17.083q-2.355 0-4.733-1.095T7.1 12.898q-1.992-1.995-3.087-4.37Q2.917 6.156 2.917 3.8a.86.86 0 0 1 .875-.883H6.51q.315 0 .556.206.242.205.307.508l.478 2.452q.05.341-.02.587a.87.87 0 0 1-.254.412L5.652 8.955q.465.85 1.062 1.61.597.759 1.292 1.45a14.4 14.4 0 0 0 3.127 2.368l1.87-1.886q.195-.204.474-.286.278-.08.578-.04l2.314.472q.315.083.515.322t.2.541v2.702q0 .376-.253.625a.86.86 0 0 1-.63.25M5.06 7.773l1.488-1.424a.15.15 0 0 0 .052-.088.2.2 0 0 0-.004-.104l-.362-1.862a.17.17 0 0 0-.056-.096.16.16 0 0 0-.104-.032H4.292a.11.11 0 0 0-.112.112 10.6 10.6 0 0 0 .88 3.493m7.25 7.201a8.6 8.6 0 0 0 1.73.591q.9.204 1.681.243.048 0 .08-.032a.1.1 0 0 0 .032-.08v-1.754a.16.16 0 0 0-.032-.104.17.17 0 0 0-.096-.056l-1.75-.356a.13.13 0 0 0-.084-.004.2.2 0 0 0-.076.052z"/></g></svg>
